X: 35
T: DA AULT RESTING CHAIR
C: Tom Anderson
S: Mr & Mrs Anderson, Hamna Voe.  Tom's Grandparents
R: Slow air
B: Haand me doon da fiddle, 1979
Z: 2012 John Chambers <jc:trillian.mit.edu>
M: C
L: 1/8
K: G
|:\
B3c A3B | G2D2 B,2G,2 | C2A2 B,2G2 | ^CE A<G F2 D2 |\
B3c A3B | G2D2 B,2G,2 | C2A2 D2F2 |1 G6 D2 :|2 G6 d2 |
TcBAG g3d | e2g2 Td2B2 | c3d B2G2 | E2AG F2D2 |\
cBAG g2d2 | e2g2 d2B2 | c2de d2F2 | G6 d2 |
McMBMAMG  g3d | e2g2 f2d2 | c3d B2G2 | ^CEAG TF2D2 |\
B3c A3B | G2D2 B,2G,2 | {B,}C2A,2  D2F2 | G8 |]
%%begintext align
Dis is a slow air o' me ain at I composed in 1968 whin I fan
at Hamnavoe, whaur me grandfaider bedd, da brucks o' da auld
resting chair dat he sat upo whin he wis learnin me ta play
da fiddle.
%%endtext

%%sep 2 1 500
%%sep 1 1 500

